static/assets/img/icons/theme/code/github.svg

<svg height="24" viewBox="0 0 24 24" width="24" xmlns="http://www.w3.org/2000/svg"><g fill="none" fill-rule="evenodd"><path d="m0 0h24v24h-24z" opacity="0"/><g fill="#000" fill-rule="nonzero"><path d="m16.5428932 17.4571068-5.5428932-5.5428932v-7.9142136c0-.55228475.4477153-1 1-1s1 .44771525 1 1v7.0857864l4.9571068 4.9571068 2.1893398-2.1893398c.1952622-.1952622.5118446-.1952622.7071068 0 .0937682.0937682.1464466.2209451.1464466.3535534v5.2928932c0 .2761424-.2238576.5-.5.5h-5.2928932c-.2761424 0-.5-.2238576-.5-.5 0-.1326082.0526784-.2597852.1464466-.3535534z"/><path d="m7.24478854 17.1447885 2.00165806 2.0016581c.09376819.0937682.14644661.2209452.14644661.3535534 0 .2761424-.22385762.5-.5.5h-5.36396103c-.27614237 0-.5-.2238576-.5-.5v-5.363961c0-.1326083.05267842-.2597852.14644661-.3535534.19526215-.1952622.51184464-.1952622.70710678 0l1.94318744 1.9431874 3.02838475-2.5624794 1.29188444 1.5267726z" opacity=".3"/></g></g></svg>

<svg width="24px" height="24px" viewBox="0 0 24 24" version="1.1" xmlns="http://www.w3.org/2000/svg" xmlns:xlink="http://www.w3.org/1999/xlink">
    <title>Icon For Github</title>
    <g stroke="none" stroke-width="1" fill="none" fill-rule="evenodd">
        <rect opacity="0" x="0" y="0" width="24" height="24"></rect>
        <path d="M16.5428932,17.4571068 L11,11.9142136 L11,4 C11,3.44771525 11.4477153,3 12,3 C12.5522847,3 13,3.44771525 13,4 L13,11.0857864 L17.9571068,16.0428932 L20.1464466,13.8535534 C20.3417088,13.6582912 20.6582912,13.6582912 20.8535534,13.8535534 C20.9473216,13.9473216 21,14.0744985 21,14.2071068 L21,19.5 C21,19.7761424 20.7761424,20 20.5,20 L15.2071068,20 C14.9309644,20 14.7071068,19.7761424 14.7071068,19.5 C14.7071068,19.3673918 14.7597852,19.2402148 14.8535534,19.1464466 L16.5428932,17.4571068 Z" fill="#000000" fill-rule="nonzero"></path>
        <path d="M7.24478854,17.1447885 L9.2464466,19.1464466 C9.34021479,19.2402148 9.39289321,19.3673918 9.39289321,19.5 C9.39289321,19.7761424 9.16903559,20 8.89289321,20 L3.52893218,20 C3.25278981,20 3.02893218,19.7761424 3.02893218,19.5 L3.02893218,14.136039 C3.02893218,14.0034307 3.0816106,13.8762538 3.17537879,13.7824856 C3.37064094,13.5872234 3.68722343,13.5872234 3.88248557,13.7824856 L5.82567301,15.725673 L8.85405776,13.1631936 L10.1459422,14.6899662 L7.24478854,17.1447885 Z" fill="#000000" fill-rule="nonzero" opacity="0.3"></path>
    </g>
</svg>
